X: 1418
T: Müstear Seyir
C: Şefik Gürmeriç
O: Turkey
F: http://compmusic.upf.edu/node/140
N: mustear--seyir--sofyan--1--sefik_gurmeric
N: makam= mustear
N: form= seyir
N: usul= sofyan = 4/4
M: 4/4
L: 1/16
K: C _1/4B _1/4e ^f 
Q: 1/4=60
%%MIDI tuningsystem comma53
B8 d4 ^c4  | d^cde d2=c2 B2^A2 B4  | \
w:   |   | 
z4 B2c2 d4 e2=f2  | e2de d2^c2 d8  | 
w:   |   | 
z2d4^c2 B2^A2 B4  | g3f ^e2g2 f8  | e2f2 g2a2 g4 =f2e2  | \
w:   |   |   | 
e2de d2^c2 d8  | 
w:   | 
^c2d2 e4 d2c2 B4  | ^A2B2 c2cB B8  | \
w:   |   | 
z2G4^A2 B2c2 d2e2  | d2c2 B2c2 d8  | 
w:   |   | 
z4 d2g2 =f4 e4  | a2g2 =f2e2 d3^c B^AB2  | \
w:   |   | 
z2B4e2 d4 c4  | B3^A G2A2 B8  | 
w:   |   | 
|


